X: 12477
T: Farewell To Drogheda
R: jig
M: 6/8
K: Edorian
dc|:B2E GBd|A2G FED|GAB dBe|cBA cdc|
B2E GBd|A2G FED|EGB eBg|1 fed edc:|2 fed AB/c/d||
e3 efg|fed ded|BAG ^GAD|BAG AB/c/d|
e2e efg|fed e2d|BAG ADA|1 GAF EGB:|2 GAF E3||

